src/images/svg/payment-methods/payment-qiwi.svg

<?xml version="1.0" encoding="UTF-8"?>
<svg width="128px" height="128px" viewBox="0 0 128 128" version="1.1" xmlns="http://www.w3.org/2000/svg" xmlns:xlink="http://www.w3.org/1999/xlink">
    <title>images/payment methods/brand color/light/qiwi</title>
    <defs>
        <polygon id="path-1" points="0.0289438953 0.0782089744 59.746186 0.0782089744 59.746186 10.7397026 0.0289438953 10.7397026"></polygon>
        <polygon id="path-3" points="3.40116279e-05 0.0774615385 50.9186949 0.0774615385 50.9186949 52.660161 3.40116279e-05 52.660161"></polygon>
    </defs>
    <g id="images/payment-methods/brand-color/light/qiwi" stroke="none" stroke-width="1" fill="none" fill-rule="evenodd">
        <g id="Group-19" transform="translate(6.000000, 38.000000)">
            <g id="Group-3" transform="translate(57.139535, 31.858436)">
                <mask id="mask-2" fill="white">
                    <use xlink:href="#path-1"></use>
                </mask>
                <g id="Clip-2"></g>
                <path d="M58.2565108,4.67120256 C58.2449468,3.8741641 57.7286503,3.40565769 57.0603218,3.40565769 C56.2977811,3.40565769 55.7583567,3.90949744 55.6175485,4.67120256 L58.2565108,4.67120256 Z M57.0953538,2.28110641 C58.8078392,2.28110641 59.7462201,3.53442051 59.7462201,5.11626667 C59.7462201,5.30380513 59.722752,5.50289487 59.699284,5.69043333 L55.5825166,5.69043333 C55.6763887,6.73310641 56.4739613,7.27193974 57.3769701,7.27193974 C57.9867985,7.27193974 58.6085311,7.00252308 59.0894555,6.61589487 L59.675816,7.68201026 C59.0659875,8.22084359 58.1276067,8.53748462 57.271534,8.53748462 C55.2889962,8.53748462 54.0458712,7.10818333 54.0458712,5.40912564 C54.0458712,3.56975385 55.3009003,2.28110641 57.0953538,2.28110641 L57.0953538,2.28110641 Z M44.573973,2.42176026 L45.9929381,2.42176026 L45.9929381,7.1312859 L47.8581358,7.1312859 L47.8581358,2.42176026 L49.2771009,2.42176026 L49.2771009,7.1312859 L51.1419584,7.1312859 L51.1419584,2.42176026 L52.5612637,2.42176026 L52.5612637,7.1312859 L53.4057724,7.1312859 L53.4057724,9.80268974 L52.0687753,9.80268974 L52.0687753,8.39683077 L44.573973,8.39683077 L44.573973,2.42176026 Z M40.0905602,7.27193974 C41.063973,7.27193974 41.8734497,6.52212564 41.8734497,5.40912564 C41.8734497,4.30801667 41.063973,3.54631154 40.0905602,3.54631154 C39.1171474,3.54631154 38.3195747,4.30801667 38.3195747,5.40912564 C38.3195747,6.52212564 39.1171474,7.27193974 40.0905602,7.27193974 L40.0905602,7.27193974 Z M40.0789962,2.28110641 C41.9084817,2.28110641 43.374723,3.58164487 43.374723,5.40912564 C43.374723,7.24849744 41.9084817,8.53748462 40.0905602,8.53748462 C38.2726387,8.53748462 36.8063974,7.24849744 36.8063974,5.40912564 C36.8063974,3.58164487 38.2726387,2.28110641 40.0789962,2.28110641 L40.0789962,2.28110641 Z M32.9232898,7.28349103 C33.7443305,7.28349103 34.4245631,6.61589487 34.4245631,5.43256795 C34.4245631,4.29612564 33.8147346,3.55820256 32.9467578,3.55820256 C32.1610892,3.55820256 31.4335805,4.12047821 31.4335805,5.44411923 C31.4335805,6.36992051 31.949877,7.28349103 32.9232898,7.28349103 L32.9232898,7.28349103 Z M29.9911474,2.42176026 L31.3516125,2.42176026 L31.3516125,2.86648462 C31.3516125,3.08935641 31.3281445,3.2887859 31.3281445,3.2887859 L31.3516125,3.2887859 C31.7386648,2.64429231 32.4658334,2.28110641 33.2753102,2.28110641 C34.8939235,2.28110641 35.9258363,3.55820256 35.9258363,5.40912564 C35.9258363,7.30727308 34.7646794,8.53748462 33.193002,8.53748462 C32.5127695,8.53748462 31.8910369,8.23273462 31.4689526,7.69356154 L31.4454846,7.69356154 C31.4454846,7.69356154 31.4808567,7.90488205 31.4808567,8.20929231 L31.4808567,10.7397026 L29.9911474,10.7397026 L29.9911474,2.42176026 Z M22.9497201,2.42176026 L28.4034846,2.42176026 L28.4034846,8.39683077 L26.9137753,8.39683077 L26.9137753,3.68696538 L24.4390892,3.68696538 L24.4390892,8.39683077 L22.9497201,8.39683077 L22.9497201,2.42176026 Z M16.5681183,1.43718333 L17.7058073,1.43718333 L17.7058073,0.0782089744 L16.5681183,0.0782089744 L16.5681183,1.43718333 Z M17.2833828,4.67120256 C17.2718189,3.8741641 16.7555224,3.40565769 16.0871939,3.40565769 C15.3246532,3.40565769 14.7852288,3.90949744 14.6444206,4.67120256 L17.2833828,4.67120256 Z M14.4097404,1.43718333 L15.5593334,1.43718333 L15.5593334,0.0782089744 L14.4097404,0.0782089744 L14.4097404,1.43718333 Z M16.122566,2.28110641 C17.8347113,2.28110641 18.7730922,3.53442051 18.7730922,5.11626667 C18.7730922,5.30380513 18.7496241,5.50289487 18.7261561,5.69043333 L14.6093887,5.69043333 C14.7032608,6.73310641 15.5008334,7.27193974 16.4038422,7.27193974 C17.0136706,7.27193974 17.6354032,7.00252308 18.1163276,6.61589487 L18.7026881,7.68201026 C18.0928596,8.22084359 17.1544788,8.53748462 16.2984061,8.53748462 C14.3162084,8.53748462 13.0727433,7.10818333 13.0727433,5.40912564 C13.0727433,3.56975385 14.3277724,2.28110641 16.122566,2.28110641 L16.122566,2.28110641 Z M10.0684962,2.28110641 C10.8776328,2.28110641 11.7925456,2.55052308 12.3673422,3.17157436 L11.6986735,4.19080513 C11.3235253,3.81572821 10.7371648,3.54631154 10.1508044,3.54631154 C9.04814738,3.54631154 8.33254273,4.37834359 8.33254273,5.39757436 C8.33254273,6.40525385 9.04814738,7.27193974 10.1974003,7.27193974 C10.8310369,7.27193974 11.5112695,6.94374744 11.9568218,6.51057436 L12.5316183,7.56513846 C11.9683858,8.16240769 11.0300049,8.53748462 10.0684962,8.53748462 C8.08629855,8.53748462 6.81970552,7.14317692 6.81970552,5.40912564 C6.81970552,3.71040769 8.08629855,2.28110641 10.0684962,2.28110641 L10.0684962,2.28110641 Z M3.16073459,7.09629231 C3.93483924,7.09629231 4.36882762,6.59245256 4.36882762,5.88952308 C4.36882762,5.19848462 3.92293517,4.69430513 3.16073459,4.69430513 L1.54212122,4.69430513 L1.54212122,7.09629231 L3.16073459,7.09629231 Z M3.0083625,3.47598462 C3.66478692,3.47598462 4.04027529,3.00747821 4.04027529,2.40986923 C4.04027529,1.81226026 3.67669099,1.37908718 2.98455436,1.37908718 L1.54212122,1.37908718 L1.54212122,3.47598462 L3.0083625,3.47598462 Z M0.0289438953,0.0782089744 L2.99645843,0.0782089744 C4.50963576,0.0782089744 5.57658052,0.851805128 5.57658052,2.22233077 C5.57658052,2.99558718 5.20143227,3.66352308 4.56813576,4.00326667 L4.56813576,4.02670897 C5.48270843,4.29612564 5.9166968,5.13970897 5.9166968,5.98329231 C5.9166968,7.64701667 4.57969971,8.39683077 3.04339448,8.39683077 L0.0289438953,8.39683077 L0.0289438953,0.0782089744 Z" id="Fill-1" fill="#2D3540" mask="url(#mask-2)"></path>
            </g>
            <path d="M83.137207,8.08389295 L83.137207,25.2497776 C83.137207,25.5076429 82.9280355,25.7162455 82.6702273,25.7162455 L79.1595471,25.7162455 C78.901739,25.7162455 78.6925674,25.5076429 78.6925674,25.2497776 L78.6925674,8.08389295 C78.6925674,7.82602756 78.901739,7.61708526 79.1595471,7.61708526 L82.6702273,7.61708526 C82.9280355,7.61708526 83.137207,7.82602756 83.137207,8.08389295" id="Fill-4" fill="#FF8C00"></path>
            <path d="M110.491909,7.61725513 L106.563906,7.61725513 C106.358476,7.61725513 106.177194,7.75043462 106.117333,7.94510769 L103.009351,18.0895115 L99.5928828,7.93389615 C99.5296212,7.74465897 99.3510602,7.61725513 99.1500515,7.61725513 L96.4090544,7.61725513 C96.2080456,7.61725513 96.0294846,7.74465897 95.9658828,7.93389615 L92.5497549,18.0895115 L89.4417724,7.94510769 C89.3815718,7.75043462 89.2002898,7.61725513 88.9948596,7.61725513 L85.0668567,7.61725513 C84.9168654,7.61725513 84.7760573,7.68894103 84.6879672,7.80955 C84.6002172,7.93015897 84.576409,8.08542179 84.6240253,8.22641538 L90.3930776,25.4018128 C90.4570195,25.5907103 90.6352404,25.7181141 90.8362491,25.7181141 L93.9537549,25.7181141 C94.1547637,25.7181141 94.3333247,25.5907103 94.3969265,25.4021526 L97.7793828,15.3678256 L101.162179,25.4021526 C101.225781,25.5907103 101.404002,25.7181141 101.605011,25.7181141 L104.722517,25.7181141 C104.923525,25.7181141 105.102086,25.5907103 105.165688,25.4018128 L110.93474,8.22641538 C110.982357,8.08542179 110.958549,7.93015897 110.870799,7.80955 C110.783049,7.68894103 110.6419,7.61725513 110.491909,7.61725513" id="Fill-6" fill="#FF8C00"></path>
            <path d="M116.418673,7.61725513 L112.907993,7.61725513 C112.650185,7.61725513 112.441013,7.82619744 112.441013,8.08406282 L112.441013,25.2499474 C112.441013,25.5074731 112.650185,25.7164154 112.907993,25.7164154 L116.418673,25.7164154 C116.676481,25.7164154 116.885653,25.5074731 116.885653,25.2499474 L116.885653,8.08406282 C116.885653,7.82619744 116.676481,7.61725513 116.418673,7.61725513" id="Fill-8" fill="#FF8C00"></path>
            <path d="M68.1352221,21.3017192 L66.251318,19.0380077 C66.0537105,18.8008667 66.2227483,18.4407385 66.5315738,18.4407385 L70.4735215,18.4407385 C70.6612657,17.8828795 70.7677221,17.2862897 70.7677221,16.6669372 C70.7677221,13.8310974 68.6542395,11.3859628 65.754068,11.3859628 C62.8538965,11.3859628 60.7407541,13.8310974 60.7407541,16.6669372 C60.7407541,19.5027769 62.8538965,21.9132577 65.754068,21.9132577 C66.6329285,21.9132577 67.4379837,21.6890269 68.1352221,21.3017192 L68.1352221,21.3017192 Z M76.661257,25.1275718 C76.8656669,25.353841 76.6976494,25.7183859 76.389164,25.7183859 L72.0873733,25.7183859 C71.9125535,25.7183859 71.7462366,25.6405846 71.6343384,25.5060462 L70.9051291,24.6298474 C69.4201814,25.5916615 67.6519169,26.1529179 65.754068,26.1529179 C60.5176378,26.1529179 56.2576814,21.8976295 56.2576814,16.6669372 C56.2576814,11.4362449 60.5176378,7.18095641 65.754068,7.18095641 C70.9904983,7.18095641 75.2504547,11.4362449 75.2504547,16.6669372 C75.2504547,18.5525141 74.6947047,20.3096679 73.7413587,21.7882321 L76.661257,25.1275718 Z" id="Fill-10" fill="#FF8C00"></path>
            <path d="M41.7843733,35.7187385 C41.9374256,36.7437449 41.6132948,37.1680846 41.2878035,37.1680846 C40.9327221,37.1680846 40.4864895,36.7522385 39.9606698,35.9327769 C39.4416523,35.1238474 39.2518674,34.1956679 39.5089953,33.7261423 C39.6787134,33.4159564 40.0348151,33.2807385 40.4834285,33.4502705 C41.3520855,33.7784628 41.692882,35.1065205 41.7843733,35.7187385" id="Fill-12" fill="#FF8C00"></path>
            <path d="M36.9789724,37.9527904 C38.0204084,38.8323865 38.3373968,39.8781173 37.7864084,40.6157006 C37.4799637,41.0199955 36.9833939,41.2432071 36.3881904,41.2432071 C35.8038706,41.2432071 35.2086672,41.0271301 34.7954259,40.6666622 C33.848202,39.8404058 33.570327,38.4997776 34.1886584,37.7384122 C34.430141,37.4407968 34.8222951,37.2767006 35.293016,37.2767006 C35.8647515,37.2767006 36.4633561,37.5172391 36.9789724,37.9527904" id="Fill-14" fill="#FF8C00"></path>
            <g id="Group-18" transform="translate(0.000000, 0.262282)">
                <mask id="mask-4" fill="white">
                    <use xlink:href="#path-3"></use>
                </mask>
                <g id="Clip-17"></g>
                <path d="M35.2364206,46.1806327 C39.7225544,46.1806327 44.5906387,47.7172929 49.9784206,52.485934 C50.5181852,52.9636135 51.2365108,52.3700814 50.7661299,51.7768891 C45.4711997,45.0985494 40.5738654,43.8272288 35.6897956,42.7522801 C29.7159933,41.4374724 26.6427026,38.0794468 24.5013305,34.3925494 C24.0751648,33.6590429 23.8840195,33.7884853 23.8455863,34.7312737 C23.7989904,35.8843635 23.8782375,37.4104917 24.1367259,38.9114788 C23.8959235,38.9226904 23.6534206,38.9196327 23.4095573,38.9196327 C14.8631154,38.9196327 7.93460669,31.9990558 7.93460669,23.4616391 C7.93460669,14.9242224 14.8631154,8.00330577 23.4095573,8.00330577 C31.9563392,8.00330577 38.884848,14.9242224 38.884848,23.4616391 C38.884848,24.0691006 38.8552578,24.6694276 38.7868945,25.2585429 C37.656348,25.0550365 35.4326677,25.031934 33.8718741,25.1668122 C33.2851735,25.217434 33.3678218,25.4909276 33.8113334,25.5707673 C38.9270224,26.4945301 42.441784,29.6609404 43.2451387,35.4077032 C43.2635049,35.5398635 43.4366241,35.5792737 43.5049875,35.4651199 C45.6103073,31.9562481 46.8194206,27.8497673 46.8194206,23.4616391 C46.8194206,10.546966 36.3383974,0.0774275641 23.4095573,0.0774275641 C10.4807172,0.0774275641 3.40116279e-05,10.546966 3.40116279e-05,23.4616391 C3.40116279e-05,36.3763122 10.4807172,46.8468699 23.4095573,46.8468699 C26.8399701,46.8468699 30.2424933,46.1806327 35.2364206,46.1806327" id="Fill-16" fill="#FF8C00" mask="url(#mask-4)"></path>
            </g>
        </g>
    </g>
</svg>

<svg width="128" height="128" xmlns="http://www.w3.org/2000/svg" xmlns:xlink="http://www.w3.org/1999/xlink"><defs><path id="a" d="M.029.078h59.717V10.74H.03z"/><path id="c" d="M0 .077h50.919V52.66H0z"/></defs><g fill="none" fill-rule="evenodd"><g transform="translate(63.14 69.858)"><mask id="b" fill="#fff"><use xlink:href="#a"/></mask><path d="M58.257 4.671c-.012-.797-.528-1.265-1.197-1.265-.762 0-1.302.503-1.442 1.265h2.639Zm-1.162-2.39c1.713 0 2.651 1.253 2.651 2.835 0 .188-.023.387-.047.574h-4.116c.093 1.043.891 1.582 1.794 1.582.61 0 1.232-.27 1.712-.656l.587 1.066c-.61.539-1.548.855-2.404.855-1.983 0-3.226-1.429-3.226-3.128 0-1.84 1.255-3.128 3.05-3.128Zm-12.521.14h1.419v4.71h1.865v-4.71h1.42v4.71h1.864v-4.71h1.42v4.71h.844v2.672h-1.337V8.397h-7.495V2.422Zm-4.483 4.85c.973 0 1.782-.749 1.782-1.862 0-1.101-.809-1.863-1.782-1.863-.974 0-1.771.762-1.771 1.863 0 1.113.797 1.863 1.77 1.863Zm-.012-4.99c1.83 0 3.296 1.3 3.296 3.128 0 1.84-1.467 3.128-3.284 3.128-1.818 0-3.285-1.289-3.285-3.128 0-1.827 1.467-3.128 3.273-3.128Zm-7.156 5.002c.821 0 1.502-.667 1.502-1.85 0-1.137-.61-1.875-1.478-1.875-.786 0-1.513.562-1.513 1.886 0 .926.516 1.84 1.49 1.84Zm-2.932-4.861h1.36v.444c0 .223-.023.423-.023.423h.024c.387-.645 1.114-1.008 1.923-1.008 1.619 0 2.65 1.277 2.65 3.128 0 1.898-1.16 3.128-2.732 3.128-.68 0-1.302-.304-1.724-.843h-.024s.036.21.036.515v2.53h-1.49V2.423Zm-7.041 0h5.453v5.975h-1.49v-4.71H24.44v4.71h-1.49V2.422Zm-6.382-.985h1.138V.078h-1.138v1.36Zm.715 3.234c-.011-.797-.527-1.265-1.196-1.265-.762 0-1.302.503-1.443 1.265h2.64ZM14.41 1.437h1.15V.078h-1.15v1.36Zm1.713.844c1.712 0 2.65 1.253 2.65 2.835 0 .188-.023.387-.047.574H14.61c.094 1.043.892 1.582 1.795 1.582.61 0 1.231-.27 1.712-.656l.587 1.066c-.61.539-1.549.855-2.405.855-1.982 0-3.225-1.429-3.225-3.128 0-1.84 1.255-3.128 3.05-3.128Zm-6.055 0c.81 0 1.725.27 2.3.89l-.67 1.02a2.271 2.271 0 0 0-1.547-.645c-1.103 0-1.818.832-1.818 1.852 0 1.007.715 1.874 1.864 1.874.634 0 1.314-.328 1.76-.761l.575 1.054c-.564.597-1.502.972-2.464.972-1.982 0-3.248-1.394-3.248-3.128 0-1.699 1.266-3.128 3.248-3.128ZM3.161 7.096c.774 0 1.208-.504 1.208-1.206 0-.692-.446-1.196-1.208-1.196H1.542v2.402h1.619Zm-.153-3.62c.657 0 1.032-.469 1.032-1.066 0-.598-.363-1.03-1.055-1.03H1.542v2.096h1.466ZM.028.078h2.968c1.514 0 2.58.774 2.58 2.144 0 .774-.375 1.442-1.008 1.781v.024c.915.27 1.349 1.113 1.349 1.956 0 1.664-1.337 2.414-2.874 2.414H.03V.078Z" fill="#2D3540" mask="url(#b)"/></g><path d="M89.137 46.084V63.25c0 .258-.209.466-.467.466h-3.51a.467.467 0 0 1-.467-.466V46.084c0-.258.209-.467.467-.467h3.51c.258 0 .467.209.467.467M116.492 45.617h-3.928a.466.466 0 0 0-.447.328L109.01 56.09l-3.416-10.156a.466.466 0 0 0-.443-.317h-2.74a.467.467 0 0 0-.444.317L98.55 56.09l-3.108-10.145a.467.467 0 0 0-.447-.328h-3.928a.47.47 0 0 0-.379.193.459.459 0 0 0-.064.416l5.77 17.176a.467.467 0 0 0 .442.316h3.118c.2 0 .38-.127.443-.316l3.382-10.034 3.383 10.034a.467.467 0 0 0 .443.316h3.118c.2 0 .38-.127.443-.316l5.769-17.176a.459.459 0 0 0-.064-.416.469.469 0 0 0-.38-.193M122.419 45.617h-3.511a.467.467 0 0 0-.467.467V63.25c0 .257.21.466.467.466h3.51a.467.467 0 0 0 .468-.466V46.084a.467.467 0 0 0-.467-.467M74.135 59.302l-1.884-2.264a.364.364 0 0 1 .28-.597h3.943a5.554 5.554 0 0 0 .294-1.774c0-2.836-2.114-5.281-5.014-5.281-2.9 0-5.013 2.445-5.013 5.28 0 2.837 2.113 5.247 5.013 5.247a4.87 4.87 0 0 0 2.381-.611Zm8.526 3.826c.205.226.037.59-.272.59h-4.302a.59.59 0 0 1-.453-.212l-.729-.876a9.445 9.445 0 0 1-5.15 1.523c-5.237 0-9.497-4.255-9.497-9.486 0-5.23 4.26-9.486 9.496-9.486 5.236 0 9.496 4.255 9.496 9.486a9.42 9.42 0 0 1-1.509 5.121l2.92 3.34ZM47.784 73.719c.153 1.025-.17 1.45-.496 1.45-.355 0-.802-.417-1.327-1.236-.52-.81-.71-1.737-.452-2.207.17-.31.526-.445.974-.276.87.328 1.21 1.657 1.301 2.269M42.979 75.953c1.041.88 1.358 1.925.807 2.663-.306.404-.803.627-1.398.627-.584 0-1.18-.216-1.593-.576-.947-.827-1.225-2.167-.606-2.929.241-.297.633-.461 1.104-.461.572 0 1.17.24 1.686.676" fill="#FF8C00"/><g transform="translate(6 38.262)"><mask id="d" fill="#fff"><use xlink:href="#c"/></mask><path d="M35.236 46.18c4.487 0 9.355 1.537 14.742 6.306.54.478 1.259-.116.788-.71-5.295-6.677-10.192-7.949-15.076-9.024-5.974-1.315-9.047-4.673-11.189-8.36-.426-.733-.617-.604-.655.34-.047 1.152.032 2.678.29 4.18-.24.01-.483.008-.726.008-8.547 0-15.475-6.92-15.475-15.458S14.863 8.003 23.41 8.003c8.546 0 15.475 6.921 15.475 15.459 0 .607-.03 1.207-.098 1.797-1.13-.204-3.354-.227-4.915-.092-.587.05-.504.324-.06.404 5.115.924 8.63 4.09 9.433 9.837.019.132.192.171.26.057a23.255 23.255 0 0 0 3.314-12.003C46.82 10.547 36.34.077 23.41.077 10.482.077 0 10.547 0 23.462c0 12.914 10.48 23.385 23.41 23.385 3.43 0 6.832-.666 11.826-.666" fill="#FF8C00" mask="url(#d)"/></g></g></svg>
